X: 5712
T: Caddam Woods
R: polka
M: 2/4
K: Gmajor
B/c/|:"G"d/d/d/d/ ^cd|"G"ed B2|"G"D/D/D/D/ GB|"Am"ed c2|
"Am"c/c/c/c/ Bc|"Am"fe c2|"D7"fe cA|"G"ed "D7"B2|
"G"d/d/d/d/ ^cd|"G"ed B2|"G"D/D/D/D/ GB|"Am"ed c2|
"Am"c/c/c/c/ Bc|"Am"fe c2|"D7"f/e/d/c/ BA|"G"(G2 "D7"G):|
|:"G"d/d/d/d/ BB|"G"d/d/d/d/ BB|"G"d2 "C"e3/2d/|"Am"d_d c2|
"Am"c/d/c/B/ AA|"Am"c/d/c/B/ AA|"D7"f3/2e/ f3/2e/|"G"ed "D7"e^d|
"G"dd d/e/d/c/|"G"BB B2|"G"d2 "C"e3/2d/|"Am"d_d c2|
"Am"cc c/d/c/B/|"Am"AA A2|"D7"d/d/d/d/ ef|"G"g3:|

